icons/temple_alt.svg

<svg width="48" height="48" viewBox="0 0 48 48" fill="none" xmlns="http://www.w3.org/2000/svg">
<path fill-rule="evenodd" clip-rule="evenodd" d="M24 5.04785C21.027 5.04785 18.559 7.21014 18.083 10.0479H13C12.4477 10.0479 12 10.4956 12 11.0479V15.0479C12 15.6001 12.4477 16.0479 13 16.0479H14V18.0479H12C11.4477 18.0479 11 18.4956 11 19.0479V23.0479C11 23.6001 11.4477 24.0479 12 24.0479V26.0479H10C9.44772 26.0479 9 26.4956 9 27.0479V31.0479C9 31.6001 9.44772 32.0479 10 32.0479H11V36H8C7.44772 36 7 36.4477 7 37V41C7 41.5523 7.44772 42 8 42H20V42.0479H28V42H40C40.5523 42 41 41.5523 41 41V37C41 36.4477 40.5523 36 40 36H37V32.0479H38C38.5523 32.0479 39 31.6001 39 31.0479V27.0479C39 26.4956 38.5523 26.0479 38 26.0479H36V24.0479C36.5523 24.0479 37 23.6001 37 23.0479V19.0479C37 18.4956 36.5523 18.0479 36 18.0479H34V16.0479H35C35.5523 16.0479 36 15.6001 36 15.0479V11.0479C36 10.4956 35.5523 10.0479 35 10.0479H29.917C29.441 7.21014 26.973 5.04785 24 5.04785ZM27.874 10.0479C27.4299 8.32262 25.8638 7.04785 24 7.04785C22.1362 7.04785 20.5701 8.32262 20.126 10.0479H21V10H27V10.0479H27.874ZM15 32.0479L15 36H13V32.0479H15ZM25 12.0479V14.0479H23V12.0479H25ZM21 12.0479H14V14.0479H21V12.0479ZM21 16.0479H16V18.0479H21V16.0479ZM21 20.0479H13V22.0479H21V20.0479ZM23 22.0479V20.0479H25V22.0479H23ZM21 24.0479H14V26.0479H21V24.0479ZM23 26.0479V24.0479H25V26.0479H23ZM11 28.0479V30.0479H21V28.0479H11ZM37 30.0479V28.0479H27V30.0479H37ZM25 28.0479V30H23V28.0479H25ZM27 26.0479H34V24.0479H27V26.0479ZM27 22.0479H35V20.0479H27V22.0479ZM27 18.0479H32V16.0479H27V18.0479ZM23 16.0479V18.0479H25V16.0479H23ZM27 14.0479H34V12.0479H27V14.0479ZM35 36V32.0479H33V36H35ZM31 36V32.0479H17V36H20V34.0479H28V36H31ZM28 38V40H39V38H28ZM26 36.0479H22V40.0479H26V36.0479ZM20 38V40H9V38H20Z" fill="black"/>
</svg>

<svg
  xmlns="http://www.w3.org/2000/svg"
  width="24"
  height="24"
  viewBox="0 0 24 24"
  fill="none"
  stroke="currentColor"
  stroke-width="2"
  stroke-linecap="round"
  stroke-linejoin="round"
>
  <path
    fill-rule="evenodd"
    d="M24 5.048a6 6 0 0 0-5.917 5H13a1 1 0 0 0-1 1v4a1 1 0 0 0 1 1h1v2h-2a1 1 0 0 0-1 1v4a1 1 0 0 0 1 1v2h-2a1 1 0 0 0-1 1v4a1 1 0 0 0 1 1h1V36H8a1 1 0 0 0-1 1v4a1 1 0 0 0 1 1h12v.048h8V42h12a1 1 0 0 0 1-1v-4a1 1 0 0 0-1-1h-3v-3.952h1a1 1 0 0 0 1-1v-4a1 1 0 0 0-1-1h-2v-2a1 1 0 0 0 1-1v-4a1 1 0 0 0-1-1h-2v-2h1a1 1 0 0 0 1-1v-4a1 1 0 0 0-1-1h-5.083a6 6 0 0 0-5.917-5m3.874 5a4.002 4.002 0 0 0-7.748 0H21V10h6v.048zM15 32.048V36h-2v-3.952zm10-20v2h-2v-2zm-4 0h-7v2h7zm0 4h-5v2h5zm0 4h-8v2h8zm2 2v-2h2v2zm-2 2h-7v2h7zm2 2v-2h2v2zm-12 2v2h10v-2zm26 2v-2H27v2zm-12-2V30h-2v-1.952zm2-2h7v-2h-7zm0-4h8v-2h-8zm0-4h5v-2h-5zm-4-2v2h2v-2zm4-2h7v-2h-7zM35 36v-3.952h-2V36zm-4 0v-3.952H17V36h3v-1.952h8V36zm-3 2v2h11v-2zm-2-1.952h-4v4h4zM20 38v2H9v-2z"
    clip-rule="evenodd"
  />
</svg>
